X:1
T:Some Sweet Day, By and By
T:Some Sweet Day, By and By
T:William Howard Doane
T:Frances Jane (Fanny) Crosby, 1884
T:Public Domain Courtesy of the Cyber Hymnal™
T:Public Domain Courtesy of the Cyber Hymnal™
C:William Howard Doane
Z:Public Domain
Z:Courtesy of the Cyber Hymnal™
%%score ( 1 2 ) ( 3 4 )
L:1/8
Q:1/4=150
M:3/2
K:D
V:1 treble 
V:2 treble 
V:3 bass 
V:4 bass 
V:1
 D3 [DE] | [DF]6 [FA]2 [GB]3 [FA] | [DF]8 [FA]3 [DF] | [CE]8 [GB]3 [FA] | [DF]8 [DF]3 [FA] | %5
w: 1.~We shall|reach the sum- mer|land, Some sweet|day, by and|by; We shall|
w: 2.~At the|crys- tal riv- er’s|brink, Some sweet|day, by and|by; We shall|
w: 3.~Oh, these|part- ing scenes will|end, Some sweet|day, by and|by; We shall|
 [Fd]6 [DA]2 [DB]3 [Dd] | [DA]8 [DF]3 D | [CE]8 [CG]3 [CF] | D8 [CE]3 [^B,^D] | %9
w: press the gold- en|strand, Some sweet|day, by and|by; Oh, the|
w: find each brok- en|link, Some sweet|day, by and|by; Then the|
w: ga- ther friend with|friend, Some sweet|day, by and|by; There be-|
 [CE]6 [EG]2 [GB]3 [FA] | [DF]8 F3 F | [FB]6 [FB]2 [Fc]3 [EF] | [Dd]8 [Fd]3 [Fc] | %13
w: loved ones watch- ing|there, By the|tree of life so|fair, Till we|
w: star that, fad- ing|here, Left our|hearts and homes so|drear, We shall|
w: fore our Fa- ther’s|throne, When the|mists and clouds have|flown, We shall|
 (B4 ^A2) [GB]2 [Gd]3 [DB] | [DA]8 [DF]3 D | [CE]8 [CG]3 [CF] | D12 ||"^Refrain" [GB]8 [GB]4 | %18
w: come * their joy to|share, Some sweet|day, by and|by.|By and|
w: see * more bright and|clear, Some sweet|day, by and|by.||
w: know * as we are|known, Some sweet|day, by and|by.||
 [FA]12 | [Fd]8 [DF]4 | [CE]8 D3 [DE] | [DF]6 [FA]2 (3([GB]2 [G^A]2) B2 x3/4 | %22
w: by,|Some sweet|day, We shall|meet our loved * ones|
w: ||||
w: ||||
 [Dd]8{B} [DA]3 [DF] | [CE]8 [CG]3 [CF] | D8 |] %25
w: gone, Some sweet|day, by and|by.|
w: |||
w: |||
V:2
 D3 x | x12 | x12 | x12 | x12 | x12 | x11 D | x12 | ^D8 x4 | x12 | x8 F3 F | x12 | x12 | G6 x6 | %14
 x11 D | x12 | D12 || x12 | x12 | x12 | x8 D3 x | x32/3 B2 | x12 | x12 | D8 |] %25
V:3
 [D,F,]3 [D,G,] | [D,A,]6 [D,D]2 [D,D]3 [D,D] | [D,A,]8 [D,D]3 [D,A,] | [A,,A,]8 [A,,C]3 [A,,A,] | %4
w: ~ ~|~ ~ ~ ~|~ ~ ~|~ ~ ~|
 [D,A,]8 [D,A,]3 [D,D] | [D,A,]6 [D,F,]2 [G,,G,]3 [B,,G,] | [D,F,]8 [D,A,]3 [D,F,] | %7
w: ~ ~ ~|~ ~ ~ ~|~ ~ ~|
 [A,,A,]8 [A,,A,]3 [A,,A,] | [D,F,]8 [A,,A,]3 [A,,A,] | [A,,A,]6 [A,,A,]2 [A,,C]3 [A,,A,] | %10
w: ~ ~ ~|~ ~ ~|~ ~ ~ ~|
 [D,A,]8 F,3 F, | [B,,D]6 [D,B,]2 [F,^A,]3 [F,A,] | [B,,B,]8 [B,D]3 [A,D] | %13
w: ~ ~ ~|~ ~ ~ ~|~ ~ ~|
 [G,D]6 [G,D]2 [G,,B,]3 [G,,G,] | [D,F,]8 [D,A,]3 [D,F,] | [A,,A,]8 [A,,A,]3 [A,,A,] | [F,A,]12 || %17
w: ~ ~ ~ ~|~ ~ ~|~ ~ ~|~|
 [G,D]2 [G,D]2 [G,D]4 [G,D]4 | [D,D]2 [D,D]2 [D,D]8 | [D,A,]8 [D,A,]4 | [A,,A,]8 [D,F,]3 [D,G,] | %21
w: By and by, yes,|by and by|||
 [D,A,]6 [D,D]2 [G,D]2 [G,D]2 x3/4 | [G,B,]8 [F,D]3 [D,A,] | [A,,A,]8 [A,,A,]3 [A,,A,] | [D,F,]8 |] %25
w: ||||
V:4
 x4 | x12 | x12 | x12 | x12 | x12 | x12 | x12 | x12 | x12 | x8 F,3 F, | x12 | x12 | x12 | x12 | %15
 x12 | x12 || x12 | x12 | x12 | x12 | x51/4 | x12 | x12 | x8 |] %25

